packages/gestalt-icons-android/vr-theme/ic_vr_drag-drop_gestalt.svg

<svg width="24" height="24" viewBox="0 0 24 24" fill="none" xmlns="http://www.w3.org/2000/svg">
<path fill-rule="evenodd" clip-rule="evenodd" d="M14.9478 0.261181C13.2463 -0.305979 11.4104 0.632711 10.874 2.34413L9.23964 7.55856L6.57227 6.53265C5.48228 6.11342 4.14254 6.35003 3.36482 7.4027C2.90595 8.02379 2.34608 8.89351 1.88644 9.94896C1.3639 11.1491 1.04594 13.0646 1.15826 15.1258C1.27143 17.2025 1.82705 19.5425 3.16813 21.5541L3.465 21.9994H22.0002V19.9994C21.101 19.9994 20.4463 19.592 19.9369 18.8762C19.4017 18.1243 19.0499 17.0489 18.8842 15.8612C18.7943 15.2173 18.7625 14.5635 18.7792 13.9479L18.7797 13.9338C18.7814 13.8728 18.7836 13.8122 18.7863 13.7521C18.7909 13.6485 18.7909 13.5441 18.7864 13.4396C18.7844 13.3926 18.7815 13.3456 18.7776 13.2986C18.6804 12.1132 17.9994 10.9277 16.751 10.4475L14.4934 9.57924L16.828 4.68407C17.0719 4.17262 17.168 3.63234 17.1355 3.1089C17.0577 1.8517 16.2388 0.691535 14.9478 0.261181ZM4.37472 12.0045L3.42791 11.65C3.21472 12.5252 3.08388 13.7063 3.1553 15.017C3.24597 16.6809 3.65808 18.4596 4.55465 19.9994H7.5129C7.44555 19.9132 7.37911 19.8248 7.31387 19.7343C6.61411 18.764 5.99996 17.4788 5.99996 15.9994H7.99996C7.99996 16.92 8.38582 17.8015 8.93605 18.5645C9.39073 19.195 9.92092 19.6924 10.3212 19.9994H18.2817C17.6213 19.0563 17.2212 17.8922 17.0012 16.733L15.6254 16.2178C15.6091 16.212 15.5928 16.2061 15.5765 16.2L4.4264 12.0245C4.4091 12.018 4.39187 12.0113 4.37472 12.0045ZM15.1386 3.23235C15.11 2.75865 14.8017 2.32126 14.3153 2.15913C13.6751 1.94573 12.9843 2.29893 12.7825 2.94289L10.5108 10.1909L5.85435 8.39993C5.46894 8.2517 5.13505 8.373 4.97345 8.59174C4.86962 8.73227 4.75983 8.8876 4.64732 9.0566C4.52418 9.24158 4.51056 9.44205 4.58735 9.6392C4.66548 9.83977 4.84044 10.0337 5.09685 10.1393L16.294 14.3325C16.3711 14.3559 16.4669 14.3466 16.5749 14.2653C16.6956 14.1745 16.7739 14.0307 16.7802 13.8837C16.7823 13.8095 16.785 13.7358 16.7882 13.6626C16.7909 13.6026 16.7904 13.5437 16.7871 13.486C16.7534 12.915 16.4331 12.4687 16.033 12.3148L11.7573 10.6703L15.0228 3.82254C15.1142 3.63091 15.1504 3.42852 15.1386 3.23235Z" fill="black"/>
<path d="M21.3 5H20.7L20.6132 5.37236C20.3539 6.48509 19.4851 7.35393 18.3724 7.61323L18 7.7V8.3L18.3724 8.38677C19.4851 8.64607 20.3539 9.51491 20.6132 10.6276L20.7 11H21.3L21.3868 10.6276C21.6461 9.51491 22.5149 8.64607 23.6276 8.38677L24 8.3V7.7L23.6276 7.61323C22.5149 7.35393 21.6461 6.48509 21.3868 5.37236L21.3 5Z" fill="black"/>
</svg>

<svg xmlns="http://www.w3.org/2000/svg" width="24" height="24"><path d="M14.95.26a3.2 3.2 0 0 0-4.08 2.08L9.24 7.56 6.57 6.53a2.7 2.7 0 0 0-3.2.87c-.46.62-1.02 1.5-1.48 2.55-.53 1.2-.84 3.11-.73 5.18a13 13 0 0 0 2 6.42l.3.45H22v-2c-.9 0-1.55-.4-2.06-1.12a7 7 0 0 1-1.06-3.02q-.13-.98-.1-1.91v-.65a3.3 3.3 0 0 0-2.03-2.85l-2.26-.87 2.34-4.9A3.2 3.2 0 0 0 14.95.26M4.43 12.02l11.15 4.18.05.02 1.37.51A8.5 8.5 0 0 0 18.28 20h-7.96c-.4-.3-.93-.8-1.38-1.44A4.5 4.5 0 0 1 8 16H6a6.4 6.4 0 0 0 1.51 4H4.55c-.9-1.54-1.3-3.32-1.4-4.98-.07-1.31.06-2.5.28-3.37l.94.35zm10.6-8.2-3.27 6.85 4.27 1.64c.4.16.72.6.76 1.18v.17l-.01.22q-.01.24-.2.39-.16.11-.29.06l-11.2-4.2a1 1 0 0 1-.5-.5.6.6 0 0 1 .06-.57l.32-.47c.17-.22.5-.34.88-.19l4.66 1.8 2.27-7.26a1.2 1.2 0 1 1 2.24.88M21.3 5h-.6l-.09.37a3 3 0 0 1-2.24 2.24L18 7.7v.6l.37.09a3 3 0 0 1 2.24 2.24l.09.37h.6l.09-.37a3 3 0 0 1 2.24-2.24L24 8.3v-.6l-.37-.09a3 3 0 0 1-2.24-2.24z"/></svg>
